X:1
T:Pigeon on the Gat:e -- Reel
R:reel
B:Ryan's Mammoth Collection
N: 50
Z: Contributed by Ray Davies,  ray:davies99.freeserve.co.uk
M:C|
L:1/8
K:Ador
u(gf)|\
.e.A((3^cBA) .e.A((3cBA) | ^cdef gfge | d2(BG) dGBG |\
 ^cdef g2(fg) |
.e.A((3cBA) eAcA | ^cdef g2(fg) | afge dBGB | AcBG A2 :|
|:u(^cd)|\
eaa^g a2(a=g) | edef g2(ge) | d2(BG) dGBG | ^cdef g2(fg) |
eaa^g aba=g | edef g2(fg) | afge dBGB | AcBG A2 :|
